X: 8041
T: Connie In The Pool
R: polka
M: 2/4
K: Amajor
Ac|:e>f ed|cd ec|d/(e/d/c/ d)c|Bc df|
e>f ed|cd ec|d/(e/d/c/ d)B|1 A2 Ac:|2 A2 Ae||
|:ae cA|GA Bc|d/(e/d/c/ d)e|{a}fe ce|
ae cA|GA Bc|d/(e/d/B/ c)B|1 A2 Ae:|2 A2||

